X:1
T:The Connemara Stockings
R:reel
M:4/4
L:1/8
K:G
|:~g2fg edBA|~G2BG AGED|GABd eaag|fdef gdef|
|~g2fg edBA|~G2BG AGED|GABd eaag|fdef ~g2ef:|
|:gbef gbeg|fade faef|gbef gbeg|fedf ~e2ef|
|gbba ~b2ag|faag afdf|~g2bg ~f2af|edef gfef:|